!!!!SEGMENT: pl-kk--kk-i-636--003-009_anonim--in-sabbato-sancto-responsorium-6tum.krn
!!!cenid: 18xx:4555
!!!COM: Anonim
!!!COM-rismID: pe30004985
!!!CDT:
!!!CNT:
!!!OPR: In Sabbato Sancto
!!!OTL: Responsorium 6tum
!!!OMV: 009
!!!PDT:
!!!AGN: Sacred
!!!YEC: Copyright 2022 Narodowy Instytut Fryderyka Chopina (https://polishscores.org)
!!!YEM: License CC-BY-4.0 (https://creativecommons.org/licenses/by/4.0)
!!!SMS-siglum: PL-Kk
!!!SMS-shelfmark: Kk.I.636
!!!SMS-variant:
!!!SMS-altvar:
!!!SMS-shelfwork: 003-009 M
!!!NIFC-rismSourceID: 1001216440
!!!NIFC-rismChildID: 1001216934
!!!NIFC-islandoraID: pl-kk:40786
!!!URL-pdf-islandora: https://repozytorium.nifc.pl/islandora/object/pl-kk%3A40786/datastream/PDF/view
!!!URL-scan: https://polish.musicsources.pl/pl/lokalizacje/galeria/rekopisy/7271/1 @EN{Scan on Polish Music Sources Website} @PL{Skany w portalu Dziedzictwo Muzyki Polskiej w otwartym dostępie}
!!!IIIF:
!!!ONB-nifc: UWAGA: Lamentacje i Responsoria In Sabbato Sancto na skanach: S – 15-20, A – 37-42, T – 60-66, B - 86-92. Każda Lamentacja i Responsorium to oddzielne pliki.
!!!AIN: 1 alto 1 bass 1 soprn 1 tenor
!!!key:
**kern	**text	**kern	**text	**kern	**text	**kern	**text
*part4	*part4	*part3	*part3	*part2	*part2	*part1	*part1
*staff4	*staff4	*staff3	*staff3	*staff2	*staff2	*staff1	*staff1
*I"Basso.	*	*I"Tenore.	*	*I"Alto.	*	*I"Soprano.	*
*I'B.	*	*I'T.	*	*I'A.	*	*I'S.	*
*Ibass	*	*Itenor	*	*Ialto	*	*Isoprn	*
*ICvox	*	*ICvox	*	*ICvox	*	*ICvox	*
*clefF4	*	*clefC4	*	*clefC3	*	*clefC1	*
*k[f#c#g#d#]	*	*k[f#c#g#d#]	*	*k[f#c#g#d#]	*	*k[f#c#g#d#]	*
*E:	*	*E:	*	*E:	*	*E:	*
*M2/2	*	*M2/2	*	*M2/2	*	*M2/2	*
*met(c|)	*	*met(c|)	*	*met(c|)	*	*met(c|)	*
=1	=1	=1	=1	=1	=1	=1	=1
2r	.	2r	.	2r	.	2r	.
4r	.	4r	.	4r	.	4r	.
4E\	Ec-	4B\	Ec-	4e\	Ec-	4g#\	Ec-
=2	=2	=2	=2	=2	=2	=2	=2
*2\right	*	*2\right	*	*2\right	*	*2\right	*
2F#\	.	2B\	.	2d#\	.	2b\	.
4F#\	-ce,	4B\	-ce,	4d#\	-ce	4a\	-ce
4r	.	4r	.	4r	.	4r	.
!LO:LB:g=original	!	!LO:LB:g=original	!	!LO:LB:g=original	!	!LO:LB:g=original	!
=3	=3	=3	=3	=3	=3	=3	=3
2r	.	2r	.	2r	.	2r	.
4r	.	4r	.	4r	.	4r	.
4F#\	quo-	4B\	quo	4d#\	quo-	4a\	quo-
=4	=4	=4	=4	=4	=4	=4	=4
2G#\	-mo-	2B\	mo-	4.e\	.	2cc#\	-mo-
.	.	.	.	8e\	-mo-	.	.
4G#\	-do	4B\	-do	4e\	-do	4b\	-do
4r	.	4r	.	4r	.	4r	.
=5	=5	=5	=5	=5	=5	=5	=5
2r	.	2r	.	2r	.	2r	.
4r	.	4r	.	4r	.	4r	.
4G#\	mo-	(4B\	mo-	[4e\	mo-	8b\L	mo-
.	.	.	.	.	.	8ee\J	.
=6	=6	=6	=6	=6	=6	=6	=6
2A\	-ri-	4.c#\)	.	4.e\]	.	4.ee\	.
.	.	8c#\	-ri-	8e\	-ri-	8cc#\	.
4A\	-tur	4A\	-tur	2e\	-tur	4cc#\	-ri-
4G#\	.	4B\	.	.	.	4b\	-tur
!	!	!	!	!LO:LB:g=original	!	!LO:LB:g=original	!
=7	=7	=7	=7	=7	=7	=7	=7
4F#\	jus-	4c#\	jus-	4e\	jus-	4a#X\	jus-
4r	.	4r	.	4r	.	4cc#\	.
4r	.	4r	.	4r	.	2ff#\	-tus,
4E\	-tus,	4A#X\	-tus,	4f#\	-tus	.	.
!LO:LB:g=original	!	!LO:LB:g=original	!	!	!	!	!
=8	=8	=8	=8	=8	=8	=8	=8
2D#\	et	2B\	et	2f#\	et	2ff#\	et
4D#\	ne-	4B\	me-	4f#\	ne-	8ee\L	ne-
.	.	.	.	.	.	8dd#\J	.
4G#\	-mo	4B\	-mo	4d#\	-mo	8cc#\L	-mo
.	.	.	.	.	.	8b\J	.
=9	=9	=9	=9	=9	=9	=9	=9
2F#\	per-	2B\	per-	4d#\	per-	4b\	per-
.	.	.	.	4.f#\	.	2dd#\	.
4F#\	-ci-	4A#X\	-ci-	.	.	.	.
.	.	.	.	8f#\	-ci-	.	.
4F#\	-pit	4A#\	-pit	4e\	-pit	8cc#\	-ci-
.	.	.	.	.	.	8cc#\	-pit
=10	=10	=10	=10	=10	=10	=10	=10
8BB/	cor-	8B\	cor-	8d#\	cor-	8b\	cor-
8BB/	-de,	8B\	-de,	8d#\	-de,	8b\	-de,
4r	.	4r	.	4r	.	4r	.
!	!	!	!	!	!	!LO:LB:g=original	!
4r	.	4r	.	4r	.	4r	.
4D#\	et	4B\	et	4d#\	et	4f#/	et
!	!	!	!	!LO:LB:g=original	!	!	!
=11	=11	=11	=11	=11	=11	=11	=11
4.E\	vi-	4.A#X\	vi-	4.c#\	vi-	4.f#/	vi-
8E\	-ri	8A#\	-ri	8c#\	-ri	8f#/	-ri
4C#/	jus-	4A#\	jus-	4e\	jus-	4f#/	jus-
4AA#X/	-ti	4c#\	-ti	4e\	-ti	4f#/	-ti
!LO:LB:g=original	!	!LO:LB:g=original	!	!	!	!	!
=12	=12	=12	=12	=12	=12	=12	=12
2BB/	tol-	1B	tol-	1d#	tol-	1f#	tol-
2D#\	.	.	.	.	.	.	.
=13	=13	=13	=13	=13	=13	=13	=13
2E\	-lun-	2.A#X\	-lun-	2c#\	-lun-	1f#	-lun-
4C#/	.	.	.	2e\	.	.	.
4AA#X/	.	4c#\	.	.	.	.	.
=14	=14	=14	=14	=14	=14	=14	=14
2BB/	-tur	2B\	-tur,	2d#\	-tur	2f#/	-tur,
4r	.	4r	.	4r	.	4r	.
4B\	et	4d#\	et	4f#\	et	4b\	et
!	!	!	!	!	!	!LO:LB:g=original	!
=15	=15	=15	=15	=15	=15	=15	=15
2Gn\	ne-	2e\	ne-	2gn\	ne-	2b\	ne-
4E\	-mo	4e\	-mo	4g\	-mo,	4b\	-mo
4E\	con-	4Gn/	con-	4g\	con-	4ccn\	con-
!	!	!	!	!LO:LB:g=original	!	!	!
=16	=16	=16	=16	=16	=16	=16	=16
2.Dn\	-si-	2.A\	-si-	4gn\	-si-	2ddn\	-si-
.	.	.	.	8f#\L	.	.	.
.	.	.	.	8e\J	.	.	.
.	.	.	.	4f#\	.	8dd\L	.
.	.	.	.	.	.	8ccn\J	.
4D\	-de-	4dn\	-de-	4f#\	-de-	8b\L	-de-
.	.	.	.	.	.	8a\J	.
!LO:LB:g=original	!	!	!	!	!	!	!
=17	=17	=17	=17	=17	=17	=17	=17
4Gn\	-rat,	4Gn/	-rat,	4gn\	-rat,	4gn\	-rat
4dn\	a	4r	.	4r	.	4r	.
4B\	fa-	2r	.	2r	.	2r	.
8G\	-ci-	.	.	.	.	.	.
8G\	-e	.	.	.	.	.	.
!	!	!LO:LB:g=original	!	!	!	!	!
=18	=18	=18	=18	=18	=18	=18	=18
2Dn\	i-	4dn\	i-	2gn\	i-	2b\	i-
.	.	4B\	.	.	.	.	.
4D\	-ni-	4A\	-ni-	4f#\	-ni-	4ccn\	-ni-
4D\	-qui-	4cn\	-qui-	4f#\	-qui-	8b\L	-qui-
.	.	.	.	.	.	8a\J	.
!	!	!	!	!	!	!LO:LB:g=original	!
=19	=19	=19	=19	=19	=19	=19	=19
8E\	-ta-	8B\	-ta-	8gn\	-ta-	8gn\	-ta-
8E\	-tis	8B\	-tis	8g\	-tis,	8g\	-tis
4B\	a	4r	.	4r	.	4r	.
4Gn\	fa-	2r	.	2r	.	2r	.
8E\	-ci-	.	.	.	.	.	.
8E\	-e	.	.	.	.	.	.
!LO:PB:g=original	!	!	!	!LO:PB:g=original	!	!	!
=20	=20	=20	=20	=20	=20	=20	=20
2BB/	sub-	4B\	sub-	2e\	sub-	2gn\	sub-
.	.	4Gn/	.	.	.	.	.
4BB/	-la-	4F#/	-la-	4d#X\	-la-	4a\	-la-
4BB/	-tus	4A/	-tus	4d#\	-tus	8g/L	-tus
.	.	.	.	.	.	8f#/J	.
=21	=21	=21	=21	=21	=21	=21	=21
1Cn	est	1Gn	est	1e	est	2gn\	est
.	.	.	.	.	.	4ee\	.
.	.	.	.	.	.	4ccn\	.
!	!	!LO:LB:g=original	!	!	!	!	!
=22	=22	=22	=22	=22	=22	=22	=22
1Cn	ju-	2cn\	jus-	1e	jus-	2gn\	ju-
.	.	2E/	.	.	.	2a\	.
!	!	!	!	!	!	!LO:LB:g=original	!
=23	=23	=23	=23	=23	=23	=23	=23
4D#X\	-stus,	4F#/	-tus,	4d#X\	-tus,	4b\	-stus,
4r	.	4r	.	4r	.	4r	.
2r	.	2r	.	2r	.	2r	.
=24	=24	=24	=24	=24	=24	=24	=24
!LO:TX:a:t=1	!	!LO:TX:a:t=1	!	!LO:TX:a:t=1	!	!LO:TX:a:t=1	!
1r	.	1r	.	1r	.	1r	.
=25	=25	=25	=25	=25	=25	=25	=25
2r	.	2r	.	2r	.	2r	.
4r	.	4r	.	4r	.	4r	.
4E\	et	4B\	et	4e\	et	4g#\	et
!LO:LB:g=original	!	!	!	!LO:LB:g=original	!	!	!
=26	=26	=26	=26	=26	=26	=26	=26
2F#\	e-	2B\	e-	2d#\	e-	2b\	e-
4F#\	-rit	4B\	-rit	4d#\	-rit	4a\	-rit
4r	.	4r	.	4r	.	4r	.
!	!	!LO:LB:g=original	!	!	!	!	!
=27	=27	=27	=27	=27	=27	=27	=27
2r	.	2r	.	2r	.	2r	.
4r	.	4r	.	4r	.	4r	.
4F#\	in	4B\	in	4d#\	in	4a\	in
!	!	!	!	!	!	!LO:LB:g=original	!
=28	=28	=28	=28	=28	=28	=28	=28
2G#\	pa-	2B\	pa-	2e\	pa-	2cc#\	pa-
4G#\	-ce	4B\	-ce	4e\	-ce	4b\	-ce
4r	.	4r	.	4r	.	4r	.
=29	=29	=29	=29	=29	=29	=29	=29
2r	.	2r	.	2r	.	2r	.
4r	.	4r	.	4r	.	4r	.
4G#\	me-	4B\	me-	4e\	me-	8b\L	me-
.	.	.	.	.	.	8ee\J	.
=30	=30	=30	=30	=30	=30	=30	=30
2A\	-mo-	2c#\	-mo-	2e\	-mo-	4.ee\	-mo-
.	.	.	.	.	.	8cc#\	.
4A\	-ri-	4c#\	-ri-	4e\	-ri-	4cc#\	-ri-
4B\	-a	4e\	-a	4g#\	-a	4b\	-a
!LO:LB:g=original	!	!	!	!LO:LB:g=original	!	!	!
=31	=31	=31	=31	=31	=31	=31	=31
4c#\	e-	4e\	e-	4a\	e-	4a\	me-
4c#\	-jus	4e\	-jus,	4a\	-jus,	4ee\	.
!	!	!	!	!	!	!LO:LB:g=original	!
2B\	e-	2r	.	2g#\	e-	8ee\L	-mo-
.	.	.	.	.	.	8dd#\J	.
.	.	.	.	.	.	8cc#\	-ri-
.	.	.	.	.	.	8b\	-a
!	!	!LO:LB:g=original	!	!	!	!	!
=32	=32	=32	=32	=32	=32	=32	=32
2A\	-jus,	4r	.	8b\L	.	2b\	e-
.	.	.	.	8a\J	.	.	.
.	.	4e\	tan-	8g#\L	-jus,	.	.
.	.	.	.	8f#\J	.	.	.
4G#\	tan-	8e\L	.	4e\	tan-	4b\	-jus,
.	.	8d#\J	.	.	.	.	.
4G#\	-quam	8c#\L	-quam	4e\	-quam	4r	.
.	.	8B\J	.	.	.	.	.
=33	=33	=33	=33	=33	=33	=33	=33
2c#\	A-	4A\	a-	2.e\	a-	4r	.
.	.	8G#\L	.	.	.	4ee\	ob-
.	.	8A\J	.	.	.	.	.
2B\	-gnus,	4B\	-gnus,	.	.	8ee\L	-mu-
.	.	.	.	.	.	8dd#\J	.
.	.	4r	.	4g#\	-gnus	8cc#\	-tu-
.	.	.	.	.	.	8b\	-it
!	!	!	!	!	!	!LO:LB:g=original	!
=34	=34	=34	=34	=34	=34	=34	=34
2A\	et	4r	.	8b\L	et	2b\	et
.	.	.	.	8a\J	.	.	.
.	.	4d#\	et	8g#\L	.	.	.
.	.	.	.	8f#\J	.	.	.
2G#\	non	8e\L	.	4e\	.	4b\	non
.	.	8d#\J	.	.	.	.	.
.	.	8c#\L	non	4e\	non	4r	.
.	.	8B\J	.	.	.	.	.
!	!	!LO:LB:g=original	!	!LO:LB:g=original	!	!	!
=35	=35	=35	=35	=35	=35	=35	=35
4F#\	a-	4A#X\	a-	8ee\L	a-	4r	.
.	.	.	.	8dd#\J	.	.	.
4F#\	-pe-	8A#\L	-pe-	8cc#\L	-pe-	4ff#\	a-
.	.	8B\J	.	8b\J	.	.	.
4F#\	-ru-	4c#\	-ru-	4a#X\	-ru-	8ff#\L	-pe-
.	.	.	.	.	.	8ee\J	.
4F#\	-it	8c#\L	-it	4a#\	-it	8dd#\	-ru-
.	.	8f#\J	.	.	.	8cc#\	-it
!LO:LB:g=original	!	!	!	!	!	!	!
=36	=36	=36	=36	=36	=36	=36	=36
8An\L	os-	2f#\	os	2b\	os	2dd#\	os
8G#\J	.	.	.	.	.	.	.
8F#\L	.	.	.	.	.	.	.
8E\J	.	.	.	.	.	.	.
8D#/L	-su-	4f#\	su-	4b\	su-	4dd#\	su-
8C#/J	.	.	.	.	.	.	.
8BB/L	-um	4f#\	-um,	4b\	-um	4dd#\	-um,
8AA/J	.	.	.	.	.	.	.
=37	=37	=37	=37	=37	=37	=37	=37
2GG#/	et	4e\	et	4b\	et	2ee\	et
.	.	4e\	de	4b\	de	.	.
4AA/	de	4e\	ju-	4a\	ju-	4cc#\	de
4BB/	ju-	4dn\	.	4f#\	.	4g#\	ju-
!	!	!LO:LB:g=original	!	!	!	!LO:LB:g=original	!
=38	=38	=38	=38	=38	=38	=38	=38
4.C#/	-di-	4c#\	-di-	4e\	-di-	4a\	-di-
.	.	8c#\	-ci-	8e\	-ci-	8a\	-ci-
16C#/	-ci-	8A\	-o	8e\	-o	8a\	-o
16C#/	-o	.	.	.	.	.	.
!	!	!	!	!LO:LB:g=original	!	!	!
8Dn/L	sub-	8B\L	sub-	4e\	sub-	8g#\L	sub-
8C#/J	.	8A\J	.	.	.	8a\J	.
8BB/	-la-	8G#\	-la-	8e\	-la-	8b\	-la-
8AA/	-tus	8A\	-tus	8e\	-tus	8cc#\	-tus
=39	=39	=39	=39	=39	=39	=39	=39
2BB/	est,	2G#/	est,	2e\	est,	2.b\	est,
2BB/	et	2F#/	et	2d#\	et	.	.
.	.	.	.	.	.	4a\	et
!LO:LB:g=original	!	!	!	!	!	!	!
=40	=40	=40	=40	=40	=40	=40	=40
2BB#X/	e-	2F#/	e-	4d#\	e-	4g#\	e-
.	.	.	.	4a\	.	4dd#\	.
4C#/	-rit	4E/	-rit	4g#\	-rit	8ff#\L	-rit
.	.	.	.	.	.	8ee\J	.
4D#/	in	4F#/	in	8b\L	in	8dd#\L	in
.	.	.	.	8a\J	.	8cc#\J	.
!	!	!LO:LB:g=original	!	!	!	!LO:LB:g=original	!
=41	=41	=41	=41	=41	=41	=41	=41
4E\	pa-	4G#\	pa-	4g#\	pa-	2b\	pa-
4F#\	.	4A\	.	4d#\	.	.	.
4G#\	-ce	4B\	-ce	4e\	-ce	4b\	-ce
4A\	me-	4c#\	me-	4e\	me-	8b\L	me-
.	.	.	.	.	.	8a\J	.
!	!	!	!	!LO:LB:g=original	!	!	!
=42	=42	=42	=42	=42	=42	=42	=42
2B\	-mo-	2B\	-mo-	2e\	-mo-	2g#/	-mo-
4BB/	-ri-	4B\	-ri-	4d#\	-ri-	4f#/	-ri-
4BB/	-a	4A\	-a	4d#\	-a	4f#/	-a
=43	=43	=43	=43	=43	=43	=43	=43
4E\	e-	4G#/	e-	4e\	e-	4e/	e-
4E\	-jus.	4G#/	-jus.	4e\	-jus.	4e/	-jus.
2r	.	2r	.	2r	.	2r	.
==	==	==	==	==	==	==	==
*-	*-	*-	*-	*-	*-	*-	*-
!!!system-decoration: [(s1,s2,s3,s4)]
!!!ENC: Berenika Jozajtis
!!!END: 2023-11-19
!!!ENC: Leszek Kubiak
!!!END: 2024-10-08
